assets/img/slider-cards/ev-6.svg

<svg width="60" height="60" viewBox="0 0 60 60" fill="none" xmlns="http://www.w3.org/2000/svg">
<path d="M46.5234 13.1484C43.6875 8.29687 39.8203 5.625 35.625 5.625H24.375C20.1797 5.625 16.3125 8.29687 13.4766 13.1484C10.6406 18 9.375 23.6719 9.375 30C9.375 36.3281 10.8281 42.3281 13.4766 46.8516C16.125 51.375 20.1797 54.375 24.375 54.375H35.625C39.8203 54.375 43.6875 51.7031 46.5234 46.8516C49.3594 42 50.625 36.3281 50.625 30C50.625 23.6719 49.1719 17.6719 46.5234 13.1484ZM46.8281 28.125H39.3281C39.1406 24.0938 38.3672 20.2266 37.0547 16.875H44.2266C45.6562 20.0156 46.6172 23.9062 46.8281 28.125ZM42 13.125H35.2734C34.4798 11.7733 33.5364 10.5154 32.4609 9.375H35.625C37.9688 9.375 40.1719 10.7812 42 13.125ZM35.625 50.625H32.4609C33.5364 49.4846 34.4798 48.2267 35.2734 46.875H42C40.1719 49.2188 37.9688 50.625 35.625 50.625ZM44.2266 43.125H37.0547C38.3672 39.7734 39.1406 35.9062 39.3281 31.875H46.8281C46.6172 36.0938 45.6562 39.9844 44.2266 43.125Z" fill="#00A0E3"/>
</svg>

<svg width="60" height="60" fill="none" xmlns="http://www.w3.org/2000/svg"><path d="M46.523 13.148c-2.836-4.851-6.703-7.523-10.898-7.523h-11.25c-4.195 0-8.063 2.672-10.898 7.523C10.64 18 9.375 23.672 9.375 30c0 6.328 1.453 12.328 4.102 16.852 2.648 4.523 6.703 7.523 10.898 7.523h11.25c4.195 0 8.063-2.672 10.898-7.523C49.36 42 50.625 36.328 50.625 30c0-6.328-1.453-12.328-4.102-16.852zm.305 14.977h-7.5c-.187-4.031-.96-7.898-2.273-11.25h7.172c1.43 3.14 2.39 7.031 2.601 11.25zm-4.828-15h-6.727a20.856 20.856 0 00-2.812-3.75h3.164c2.344 0 4.547 1.406 6.375 3.75zm-6.375 37.5h-3.164a20.856 20.856 0 002.812-3.75H42c-1.828 2.344-4.031 3.75-6.375 3.75zm8.602-7.5h-7.172c1.312-3.352 2.086-7.219 2.273-11.25h7.5c-.21 4.219-1.172 8.11-2.601 11.25z" fill="#00A0E3"/></svg>
